svgs/stellio.svg

<svg xmlns="http://www.w3.org/2000/svg" width="192" height="192" fill="none" stroke="#000" stroke-width="12" xmlns:v="https://vecta.io/nano"><path d="M108 80l6 15m0 0l-7 4m7-4l7 5m-57 4l15.5 4m0 0l8.5-4m-8.5 4l2.5 12" stroke-linecap="round" stroke-linejoin="round"/><path d="M140 140l-36 20v-40l36 20z" stroke-linejoin="round"/><path d="M48 136c0-5.5 4-10 11-10 5 0 9 4 9 10s-2 19-20 19c-12 0-26-7-26-27s18-36 18-36m16-16c12-12 22.4-16 48-16-3-4-12-14-24-14m90 27s-2 10.857-14 15-20-4-20-4m-14-36l8-16 28 26" stroke-linejoin="round" stroke-linecap="round"/></svg>

<svg width="192" height="192" viewBox="0 0 192 192" fill="none" xmlns="http://www.w3.org/2000/svg">
<path d="M108 80L114 95M114 95L107 99M114 95L121 100" stroke="black" stroke-width="12" stroke-linecap="round" stroke-linejoin="round"/>
<path d="M64 104L79.5 108M79.5 108L88 104M79.5 108L82 120" stroke="black" stroke-width="12" stroke-linecap="round" stroke-linejoin="round"/>
<path d="M140 140L104 160V120L140 140Z" stroke="black" stroke-width="12" stroke-linecap="round" stroke-linejoin="round"/>
<path d="M48 136C48 130.5 52 126 59 126C64 126 68 130 68 136C68 142 66 155 48 155C36 155 22 148 22 128C22 108 40 92 40 92" stroke="black" stroke-width="12" stroke-linecap="round" stroke-linejoin="round"/>
<path d="M56 76C68 64 78.4 60 104 60C101 56 92 46 80 46" stroke="black" stroke-width="12" stroke-linecap="round" stroke-linejoin="round"/>
<path d="M170 73C170 73 168 83.8569 156 88C144 92.1431 136 84 136 84" stroke="black" stroke-width="12" stroke-linecap="round" stroke-linejoin="round"/>
<path d="M122 48L130 32L158 58" stroke="black" stroke-width="12" stroke-linecap="round" stroke-linejoin="round"/>
</svg>
